symbols/web/settings_cell/materialsymbolssharp/settings_cell_wght200gradN25_48px.svg

<svg xmlns="http://www.w3.org/2000/svg" height="48" width="48"><path d="M13.65 37.95V2.05h20.7v35.9Zm1.5-1.5h17.7V33h-17.7Zm0-5h17.7V8.55h-17.7Zm0-24.4h17.7V3.6h-17.7Zm.65 40.45q-.55 0-.925-.4t-.375-.9q0-.55.375-.925t.925-.375q.5 0 .9.375t.4.925q0 .5-.4.9t-.9.4Zm8.2 0q-.55 0-.925-.4t-.375-.9q0-.55.375-.925T24 44.9q.55 0 .925.375t.375.925q0 .55-.375.925T24 47.5Zm8.2 0q-.5 0-.875-.4t-.375-.9q0-.55.375-.925t.925-.375q.5 0 .9.375t.4.925q0 .5-.4.9t-.95.4ZM15.15 7.05V3.6v3.45Zm0 29.4V33v3.45Z"/></svg>

<svg xmlns="http://www.w3.org/2000/svg" height="48" width="48"><path d="M13.65 37.95V2.05H34.35V37.95ZM15.15 36.45H32.85V33H15.15ZM15.15 31.45H32.85V8.55H15.15ZM15.15 7.05H32.85V3.6H15.15ZM15.8 47.5Q15.25 47.5 14.875 47.1Q14.5 46.7 14.5 46.2Q14.5 45.65 14.875 45.275Q15.25 44.9 15.8 44.9Q16.3 44.9 16.7 45.275Q17.1 45.65 17.1 46.2Q17.1 46.7 16.7 47.1Q16.3 47.5 15.8 47.5ZM24 47.5Q23.45 47.5 23.075 47.1Q22.7 46.7 22.7 46.2Q22.7 45.65 23.075 45.275Q23.45 44.9 24 44.9Q24.55 44.9 24.925 45.275Q25.3 45.65 25.3 46.2Q25.3 46.75 24.925 47.125Q24.55 47.5 24 47.5ZM32.2 47.5Q31.7 47.5 31.325 47.1Q30.95 46.7 30.95 46.2Q30.95 45.65 31.325 45.275Q31.7 44.9 32.25 44.9Q32.75 44.9 33.15 45.275Q33.55 45.65 33.55 46.2Q33.55 46.7 33.15 47.1Q32.75 47.5 32.2 47.5ZM15.15 7.05V3.6V7.05ZM15.15 36.45V33V36.45Z"/></svg>
